resources/icons/20px/panel-table.svg

<svg xmlns="http://www.w3.org/2000/svg" viewBox="0 0 20 20">
  <path d="M19 1H1c-.6 0-1 .4-1 1v15c0 .6.4 1 1 1h18c.6 0 1-.4 1-1V2c0-.6-.4-1-1-1m-9 11H7V9h3zm0-4H7V5h3zm-8 8V3h4v13zm5 0v-3h3v3zm11 0h-7v-3h7zm0-4h-7V9h7zm0-4h-7V5h7z"/>
</svg>

<?xml version="1.0" encoding="utf-8"?>
<!-- Generator: Adobe Illustrator 18.0.0, SVG Export Plug-In . SVG Version: 6.00 Build 0)  -->
<svg version="1.1" id="Layer_1" xmlns="http://www.w3.org/2000/svg" xmlns:xlink="http://www.w3.org/1999/xlink" x="0px" y="0px"
	 viewBox="0 0 20 20" enable-background="new 0 0 20 20" xml:space="preserve">
<title>pt-icon-panel-table</title>
<desc>Created with Sketch.</desc>
<path fill="#10161A" d="M19,1H1C0.4,1,0,1.4,0,2v15c0,0.6,0.4,1,1,1h18c0.6,0,1-0.4,1-1V2C20,1.4,19.6,1,19,1z M10,12H7V9h3V12z
	 M10,8H7V5h3V8z M2,16V3h4v13H2z M7,16v-3h3v3H7z M18,16h-7v-3h7V16z M18,12h-7V9h7V12z M18,8h-7V5h7V8z"/>
</svg>
